Sources/FrostedUI/Resources/Icons.xcassets/sealCheckmark20.imageset/seal-checkmark-20.svg

<svg width="20" height="20" viewBox="0 0 20 20" fill="none" xmlns="http://www.w3.org/2000/svg" data-fui-icon="true">
  <g clip-path="url(#clip0_882_1068)">
    <path
      d="M10.0049 -0.00878906C10.9308 -0.008549 11.7573 0.412286 12.3066 1.07227C12.5947 1.41823 12.9378 1.73247 13.3535 1.90527C13.666 2.03505 14.0041 2.07784 14.3428 2.07324L14.6816 2.05469C15.5388 1.97495 16.4237 2.26159 17.0801 2.91797C17.7352 3.57333 18.0213 4.45591 17.9424 5.31152C17.9008 5.76209 17.9192 6.22474 18.0928 6.64258C18.2656 7.0581 18.5794 7.40195 18.9248 7.69043C19.5825 8.23995 20.002 9.06497 20.002 9.98926C20.0017 10.9112 19.5847 11.7348 18.9297 12.2842L18.6777 12.5117C18.4349 12.7508 18.2252 13.0229 18.0947 13.3359L18.0361 13.4961C17.9162 13.8724 17.9072 14.2776 17.9434 14.6738C18.0214 15.5287 17.7346 16.4107 17.0801 17.0654C16.4652 17.6803 15.6499 17.9709 14.8447 17.9395L14.6836 17.9287C14.2327 17.8869 13.7698 17.9046 13.3516 18.0781L13.1982 18.1494C12.8497 18.33 12.5548 18.6086 12.3018 18.9111L12.1963 19.0312C11.6497 19.6185 10.8706 19.9861 10.0049 19.9863C9.13563 19.9863 8.3538 19.6155 7.80664 19.0244L7.7002 18.9033C7.41457 18.5595 7.07376 18.247 6.66113 18.0752C6.24681 17.9029 5.78758 17.8855 5.34082 17.9277L5.17969 17.9385C4.37329 17.9714 3.55644 17.6812 2.94043 17.0654C2.32669 16.4515 2.03613 15.6379 2.06641 14.834L2.07617 14.6738C2.11211 14.2794 2.10296 13.8755 1.9834 13.501L1.92578 13.3428C1.79535 13.0298 1.58426 12.7579 1.34082 12.5195L1.08789 12.292C0.427722 11.7425 0.00607616 10.9154 0.00585938 9.98926C0.00585938 9.11863 0.378007 8.33549 0.970703 7.78809L1.09277 7.68262C1.39581 7.4313 1.6744 7.13756 1.85547 6.79004L1.92676 6.6377C2.05681 6.32624 2.09986 5.98918 2.0957 5.65137L2.07715 5.31348C1.99809 4.45715 2.28482 3.57372 2.94043 2.91797C3.59816 2.2603 4.48502 1.97409 5.34375 2.05566C5.7332 2.0926 6.13196 2.08279 6.50195 1.96484L6.65918 1.9082C6.96839 1.77935 7.23677 1.57108 7.47168 1.33008L7.69531 1.08008C8.2449 0.415407 9.07486 -0.00878906 10.0049 -0.00878906ZM10.0049 1.49121C9.54207 1.49121 9.1292 1.70038 8.85156 2.03613C8.49074 2.47248 7.96463 2.98923 7.23535 3.29297C6.49974 3.59922 5.76156 3.60189 5.20215 3.54883C4.82257 3.51277 4.43809 3.61822 4.12891 3.86426L4.00098 3.97852C3.67485 4.30479 3.53037 4.74311 3.57031 5.17578C3.62201 5.7363 3.6188 6.47762 3.31055 7.21582C3.00504 7.94707 2.48656 8.47471 2.0498 8.83691C1.71505 9.11453 1.50684 9.52689 1.50684 9.98926C1.50705 10.4499 1.71432 10.861 2.04785 11.1387C2.48475 11.5024 3.00391 12.0323 3.30957 12.7656C3.6179 13.5057 3.62143 14.2484 3.57031 14.8096C3.53103 15.2414 3.6753 15.679 4.00098 16.0049L4.12891 16.1191C4.4374 16.3644 4.82105 16.4704 5.2002 16.4346C5.76065 16.3816 6.50021 16.3838 7.2373 16.6904C7.96595 16.9937 8.49218 17.5094 8.85352 17.9443C9.13115 18.2783 9.54349 18.4863 10.0049 18.4863C10.4639 18.4861 10.8738 18.2801 11.1514 17.9482C11.5152 17.5133 12.0446 16.9963 12.7764 16.6924C13.5172 16.3849 14.2604 16.3825 14.8223 16.4346C15.2549 16.4746 15.6934 16.331 16.0195 16.0049C16.3448 15.6794 16.4886 15.2424 16.4492 14.8105C16.3978 14.2478 16.4006 13.5026 16.71 12.7598C17.0146 12.0284 17.5313 11.4992 17.9658 11.1348C18.2555 10.8918 18.4484 10.5474 18.4922 10.1582L18.502 9.98926C18.502 9.52957 18.2951 9.11943 17.9629 8.8418C17.5283 8.47882 17.0121 7.94987 16.708 7.21875C16.4003 6.47861 16.3973 5.73604 16.4492 5.17383C16.4892 4.74132 16.3448 4.30408 16.0195 3.97852C15.6928 3.65178 15.2532 3.50763 14.8203 3.54785C14.2595 3.60009 13.5178 3.59719 12.7783 3.29004C12.0462 2.98576 11.5166 2.46855 11.1533 2.03223C10.9104 1.74039 10.5656 1.54527 10.1748 1.50098L10.0049 1.49121ZM12.6006 6.9668C12.8935 6.67421 13.3683 6.67405 13.6611 6.9668C13.9539 7.25959 13.9537 7.73443 13.6611 8.02734L8.66113 13.0273C8.36824 13.3202 7.89348 13.3202 7.60059 13.0273L5.72559 11.1523C5.43274 10.8594 5.43271 10.3847 5.72559 10.0918C6.01849 9.79921 6.49333 9.79905 6.78613 10.0918L8.13086 11.4365L12.6006 6.9668Z"
      fill="currentColor"
    />
  </g>
  <defs>
    <clipPath id="clip0_882_1068"><path fill="currentColor" d="M0 0H20V20H0z" /></clipPath>
  </defs>
</svg>

<svg xmlns="http://www.w3.org/2000/svg" width="20" height="20" fill="none" data-fui-icon="true" viewBox="0 0 20 20"><g clip-path="url(#a)"><path fill="currentColor" d="M10.005-.009c.926 0 1.752.421 2.302 1.081.288.346.63.66 1.047.833.312.13.65.173.989.168l.339-.018a2.99 2.99 0 0 1 3.26 3.257c-.041.45-.023.913.15 1.33.174.416.487.76.833 1.048a2.989 2.989 0 0 1 .005 4.594l-.252.228c-.243.239-.453.51-.583.824l-.059.16c-.12.376-.129.782-.093 1.178a2.99 2.99 0 0 1-.863 2.391 2.99 2.99 0 0 1-2.235.874l-.161-.01c-.451-.042-.914-.024-1.332.15l-.154.07c-.348.181-.643.46-.896.762l-.106.12a2.99 2.99 0 0 1-2.191.955c-.87 0-1.651-.37-2.198-.962l-.107-.12c-.285-.344-.626-.657-1.039-.829-.414-.172-.873-.19-1.32-.147l-.161.01a2.98 2.98 0 0 1-2.24-.873 2.99 2.99 0 0 1-.874-2.231l.01-.16c.036-.395.027-.798-.093-1.173l-.057-.158a2.5 2.5 0 0 0-.585-.823l-.253-.228A2.99 2.99 0 0 1 .97 7.788l.122-.105c.303-.252.581-.545.762-.893l.072-.152c.13-.312.173-.649.169-.987l-.019-.338a2.988 2.988 0 0 1 3.267-3.258c.39.038.788.028 1.158-.09l.157-.057a2.5 2.5 0 0 0 .813-.578l.223-.25a2.99 2.99 0 0 1 2.31-1.089m0 1.5c-.463 0-.876.21-1.153.545-.361.436-.887.953-1.617 1.257-.735.306-1.473.309-2.033.256a1.5 1.5 0 0 0-1.073.315L4 3.98a1.49 1.49 0 0 0-.43 1.197c.051.56.048 1.302-.26 2.04-.306.731-.824 1.259-1.261 1.62-.335.279-.543.69-.543 1.153 0 .46.207.872.54 1.15.438.363.957.893 1.263 1.627.308.74.311 1.482.26 2.044-.039.431.105.869.431 1.195l.128.114a1.5 1.5 0 0 0 1.071.316c.56-.053 1.3-.051 2.037.255.729.304 1.255.82 1.617 1.254a1.49 1.49 0 0 0 2.297.004c.364-.435.894-.952 1.625-1.256.741-.307 1.484-.31 2.046-.257a1.488 1.488 0 0 0 1.627-1.624c-.051-.563-.048-1.308.261-2.051.305-.732.821-1.26 1.256-1.625.29-.243.482-.588.526-.977l.01-.169c0-.46-.207-.87-.54-1.147-.434-.363-.95-.892-1.254-1.623-.308-.74-.31-1.483-.259-2.045a1.49 1.49 0 0 0-1.629-1.626c-.56.052-1.302.05-2.042-.258-.732-.304-1.261-.821-1.625-1.258a1.5 1.5 0 0 0-.978-.531zM12.6 6.967a.75.75 0 0 1 1.06 1.06l-5 5a.75.75 0 0 1-1.06 0l-1.875-1.875a.75.75 0 1 1 1.06-1.06l1.345 1.345z"/></g><defs><clipPath id="a"><path fill="currentColor" d="M0 0h20v20H0z"/></clipPath></defs></svg>
